X:109
T: Pfeifchen, wer hat dich erfunden (1-35), S. 92
N: K1083
O: Luxemburg
S: KINTZELE, Guillaume: An der Ucht, Bd. 1, Luxemburg 1926]
N: in der Quelle mit einer 2. Stimme versehen
R: Loblied?]
M: 4/4
L: 1/8
K: D
DF | A2A2A2FG | A4Fz
BA | G3GG2AG | F2D2D2
DF | A2A2B2c2 | d4A2
BA | G2BAGEDD | D2D2D2

@@@ Tune index: 8163
